!!!COM: Beethoven, Ludwig van
!!!CDT: 1770///-1827///
!!!ODT: 1810///-1811///
!!!OTL: String Quartet No. 11 in F Minor, Op. 95 (Serioso)
!!!OPS: Op. 95
!!!OMV: Mvmt. 2
!!!OMD: Allegretto ma non troppo
!!!PDT: 1816///
!!!PPP: Vienna
!!!ODE: Nik Zmeskall von Domanovetz gewidmet
!!!MPD: 1814/05//
**kern	**dynam	**kern	**dynam	**kern	**dynam	**kern	**dynam
*staff4	*staff4	*staff3	*staff3	*staff2	*staff2	*staff1	*staff1
*Icello	*Icello	*Iviola	*Iviola	*Ivioln	*Ivioln	*Ivioln	*Ivioln
*clefF4	*clefF4	*clefC3	*clefC3	*clefG2	*clefG2	*clefG2	*clefG2
*k[f#c#]	*k[f#c#]	*k[f#c#]	*k[f#c#]	*k[f#c#]	*k[f#c#]	*k[f#c#]	*k[f#c#]
*D:	*D:	*D:	*D:	*D:	*D:	*D:	*D:
*M2/4	*M2/4	*M2/4	*M2/4	*M2/4	*M2/4	*M2/4	*M2/4
*MM60	*MM60	*MM60	*MM60	*MM60	*MM60	*MM60	*MM60
=1-	=1-	=1-	=1-	=1-	=1-	=1-	=1-
8.D\	.	2r	.	2r	.	2r	.
16r	.	.	.	.	.	.	.
8.C#/	.	.	.	.	.	.	.
16r	.	.	.	.	.	.	.
=2	=2	=2	=2	=2	=2	=2	=2
8.BB/	.	2r	.	2r	.	2r	.
16r	.	.	.	.	.	.	.
8.AA/	.	.	.	.	.	.	.
16r	.	.	.	.	.	.	.
=3	=3	=3	=3	=3	=3	=3	=3
8.GG/	.	2r	.	2r	.	2r	.
16r	.	.	.	.	.	.	.
8FF#'/L	.	.	.	.	.	.	.
8GG#'/J	.	.	.	.	.	.	.
=4	=4	=4	=4	=4	=4	=4	=4
2AA/	.	2r	.	2r	.	2r	.
=5	=5	=5	=5	=5	=5	=5	=5
4r	.	4r	.	(8d/L	.	(4d/	.
.	.	.	.	8A/J	.	.	.
[4D\	.	(8cn/L	.	8d/L	.	[4f#/)	.
.	.	8A/J	.	8cn/J	.	.	.
=6	=6	=6	=6	=6	=6	=6	=6
2D\]	.	8cn/L	.	8d/L	.	4f#/]	.
.	.	8A/J	.	8cn/J	.	.	.
.	.	8c/L	.	8d/L	.	(8e'/L	.
.	.	8A/J)	.	8c/J)	.	8f#'/J)	.
=7	=7	=7	=7	=7	=7	=7	=7
[2GG/	.	(8B-/L	.	(8d/L	.	(4.g/	.
.	.	8G/J	.	8B-/J	.	.	.
.	.	8B-/L	.	8d/L	.	.	.
.	.	8A/J	.	8cn/J	.	8a/	.
=8	=8	=8	=8	=8	=8	=8	=8
(4GG/]	.	8G/L	.	8B-/L	.	4b-\	.
.	.	8E/J	.	8c#/J	.	.	.
8DD/)	.	8F#/L	.	8d/L	.	8a/L)	.
8r	.	8A/J)	.	8f#/J)	.	8a/J	.
=9	=9	=9	=9	=9	=9	=9	=9
8D\	.	(8d/L	.	8f#/L	.	(8a\L	.
8r	.	8A/J	.	(8f#/J	.	8dd\J	.
4r	.	8e\L	.	8g/L	.	8cc#\L	.
.	.	8d\J)	.	8f#/J)	.	8dd\J	.
=10	=10	=10	=10	=10	=10	=10	=10
8AA/	.	(8c#\L	.	(8e/L	.	8.ee\L	.
8r	.	8e\J	.	8g/J	.	.	.
.	.	.	.	.	.	16cc#\Jk)	.
8r	.	8d#\L	.	8f#/L	.	8a/L	.
(8C#/	.	8e\J)	.	8g/J)	.	8a/J	.
=11	=11	=11	=11	=11	=11	=11	=11
8D\L	.	4dn\	.	4f#/	.	4a/	.
8F#\J	.	.	.	.	.	.	.
8D\L	.	[4d\	.	[4fn/	.	[4b\	.
8G#\J)	.	.	.	.	.	.	.
=12	=12	=12	=12	=12	=12	=12	=12
(8AA\L	p	(4d\]	p	(4f/]	p	(4b\]	p
8G#\J	.	.	.	.	.	.	.
8A\)	.	8c#/L)	.	8e/)	.	8a/)	.
8r	.	(8A/J	.	8r	.	8r	.
=13	=13	=13	=13	=13	=13	=13	=13
4AA/	.	8B-/L	.	2e/	.	2g/	.
.	.	8A/J	.	.	.	.	.
4r	.	8c#/L	.	.	.	.	.
.	.	8A/J)	.	.	.	.	.
=14	=14	=14	=14	=14	=14	=14	=14
4AA/	.	(8B-/L	.	4.d/	.	(4.f#/	.
.	.	8A/J	.	.	.	.	.
8r	.	8d/L	.	.	.	.	.
(8F#\	.	8A/J	.	8d/	.	8dd\	.
=15	=15	=15	=15	=15	=15	=15	=15
4E\	.	8G/L	.	8r	.	4cc#\)	.
.	.	8A/J	.	8g/	.	.	.
4D\)	.	8F#/L	.	8r	.	4dd\	.
.	.	8A/J)	.	8f#/	.	.	.
=16	=16	=16	=16	=16	=16	=16	=16
8C#/	.	8E/L	.	4e/	.	(8ff#\L	.
8r	.	8A/J	.	.	.	[8ee\J)	.
4r	.	8A/L	.	4r	.	(16ee\LL]	.
.	.	.	.	.	.	32dd\L	.
.	.	.	.	.	.	32cc#\J)	.
.	.	(8A/J	.	.	.	16b'\	.
.	.	.	.	.	.	16a'\JJ	.
=17	=17	=17	=17	=17	=17	=17	=17
2E\	.	8G/L	.	(4c#/	.	(8b-/L	.
.	.	8A/J	.	.	.	8a/J	.
.	.	8G/L	.	8b-/L	.	8cc#\L	.
.	.	8A/J)	.	8a/J)	.	8a\J	.
=18	=18	=18	=18	=18	=18	=18	=18
8D\L	.	(8F#/L	.	(8a/L	.	8ff#\L	.
(8D\J	.	8A/J	.	8f#/J	.	8dd\J	.
[4D#\)	.	8F#/L	.	8a/L	.	8ccn\L	.
.	.	8A/J)	.	8f#/J)	.	8aa\J)	.
=19	=19	=19	=19	=19	=19	=19	=19
8D#\L]	.	(8F#/L	.	(8a/L	.	(8bn\L	.
(8D#\J	.	8B/J	.	8f#/J	.	8aa\J	.
[4E\)	.	8G/L	.	8g/L	.	8b\L	.
.	.	8B/J)	.	8e/J)	.	8gg\J	.
=20	=20	=20	=20	=20	=20	=20	=20
8E\]	.	(8G/L	.	(8g/L	.	8a#\L	.
4E\	.	8c#/J	.	8B-/J	.	8gg\J	.
.	.	8G/L	.	8g/L	.	8an\L	.
[8EE/	.	8c#/J)	.	8A/J)	.	8gg\J	.
=21	=21	=21	=21	=21	=21	=21	=21
8EE/L]	.	(8G/L	.	(8g/L	.	8a\L	.
(8EE/J	.	8A/J	.	8c#/J	.	8gg\J	.
8FF#/L)	.	&(8A/L&))	.	8d/L	.	8ff#\L	.
(8FF#/J	.	[8D/J	.	8A/J	.	8dd\J	.
=22	=22	=22	=22	=22	=22	=22	=22
8GG/L)	.	8D/L]	.	8Bn/L)	.	8b/L	.
8GG/J	p	(8E/J	p	(8B/J	p	16g/L	p
.	.	.	.	.	.	16e/JJ)	.
8AA/L	.	8E'/L)	.	8c#'/L)	.	8c#'/L	.
8AA/J	.	8E'/J	.	8c#'/J	.	8a'/J	.
=23	=23	=23	=23	=23	=23	=23	=23
8DD/	.	4r	.	8.cn/ 8.e-/	.	8A/ 8f#/	.
8r	.	.	.	.	.	8r	.
.	.	.	.	16r	.	.	.
4r	.	8.d	.	4r	.	4r	.
.	.	16r	.	.	.	.	.
=24	=24	=24	=24	=24	=24	=24	=24
8DD/	.	4r	.	8.c#/ 8.en/	.	8A#/ 8g/	.
8r	.	.	.	.	.	8r	.
.	.	.	.	16r	.	.	.
4r	.	8.d	.	4r	.	4r	.
.	.	16r	.	.	.	.	.
=25	=25	=25	=25	=25	=25	=25	=25
8r	.	2r	.	8r	.	(8aan\L	.
(8D\	.	.	.	(8dd\	.	8ff#\J	.
8F#\L	.	.	.	8a/L	.	8dd\L	.
8G\J	.	.	.	8d/J)	.	8b\J	.
=26	=26	=26	=26	=26	=26	=26	=26
8A\L)	.	(8f#\L	.	(8d/L	.	8a/L	.
8AA\J	.	8d\J	.	8A/J	.	8f#/J	.
8AA/L	.	8A/L	.	8c#/L	.	8e/L	.
8AA/J	.	8c#/J)	.	8e/J)	.	8a/J)	.
=27	=27	=27	=27	=27	=27	=27	=27
8DD/	.	4r	.	8.cn/ 8.e-/	.	8A/ 8f#/	.
8r	.	.	.	.	.	8r	.
.	.	.	.	16r	.	.	.
4r	.	8.d	.	4r	.	4r	.
.	.	16r	.	.	.	.	.
=28	=28	=28	=28	=28	=28	=28	=28
8DD/	.	4r	.	8.c#/ 8.en/	.	8A#/ 8g/	.
8r	.	.	.	.	.	8r	.
.	.	.	.	16r	.	.	.
4r	.	8.d	.	4r	.	4r	.
.	.	16r	.	.	.	.	.
=29	=29	=29	=29	=29	=29	=29	=29
8r	.	2r	.	(8ff#\L	.	(8aan\L	.
(8d\	.	.	.	8dd\J	.	8ff#\J	.
8f#\L	.	.	.	8a/L	.	8ddd\L	.
8g\J)	.	.	.	8d/J)	.	8bb\J	.
=30	=30	=30	=30	=30	=30	=30	=30
(8a\L	.	(8dd\L	.	(8f#/L	.	8aa\L	.
8A\J)	.	8a\J	.	8d/J	.	8ff#\J	.
8A\L	.	8g\L	.	8c#/L)	.	8ee\L	.
[8A\J	.	8e\J)	.	8c#/J	.	8aa\J)	.
=31	=31	=31	=31	=31	=31	=31	=31
(8A\L]	.	4.d\	.	4.f#/	.	8r	.
8F#\J	.	.	.	.	.	(4a/	.
8D/L	.	.	.	.	.	.	.
[8BB/J)	.	[8d\	.	[8dd\	.	8g/	.
=32	=32	=32	=32	=32	=32	=32	=32
(16BB/LL]	.	8d\L]	.	(8dd/L]	.	8f#\L	.
16AA/	.	.	.	.	.	.	.
16FF#/	.	(8d\J	.	8f#/J	.	8ff#\J	.
16DD/JJ)	.	.	.	.	.	.	.
8AA'/L	.	8c#/L	.	8e/L)	.	8ee\L	.
8AA'/J	.	8A/J)	.	8e/J 8cc#/	.	8aa\J)	.
=33	=33	=33	=33	=33	=33	=33	=33
8DD/	p	8A/	p	8f#/ 8dd/	p	8ff#\	p
8r	.	8r	.	8r	.	8r	.
8DD/	.	8A#/	.	8e/ 8cc#/	.	8gg\	.
8r	.	8r	.	8r	.	8r	.
=34	=34	=34	=34	=34	=34	=34	=34
4DD/	.	4An/	.	4f#/ 4dd/	.	4ff#\	.
4r	.	8r	.	4r	.	4r	.
.	.	(8a\	.	.	.	.	.
=35	=35	=35	=35	=35	=35	=35	=35
2r	.	(4.dd\)	.	2r	.	2r	.
.	.	8cc#\)	.	.	.	.	.
=36	=36	=36	=36	=36	=36	=36	=36
2r	.	(8ccn\L	.	2r	.	2r	.
.	.	16a\L	.	.	.	.	.
.	.	16b-\JJ	.	.	.	.	.
.	.	8cc\L	.	.	.	.	.
.	.	8a\J)	.	.	.	.	.
=37	=37	=37	=37	=37	=37	=37	=37
2r	.	(8b-\L	.	2r	.	2r	.
.	.	16g\L	.	.	.	.	.
.	.	16a\JJ	.	.	.	.	.
.	.	16b-\LL	.	.	.	.	.
.	.	16a\	.	.	.	.	.
.	.	16b-\	.	.	.	.	.
.	.	16g\JJ)	.	.	.	.	.
=38	=38	=38	=38	=38	=38	=38	=38
2r	.	8e-\L	.	4r	.	2r	.
.	.	8d\J	.	.	.	.	.
.	.	8c#\L	.	8r	.	.	.
.	.	[8cn\J	.	(8d/	.	.	.
=39	=39	=39	=39	=39	=39	=39	=39
2r	.	8c/L]	.	(4.a/)	.	2r	.
.	.	(8A/J	.	.	.	.	.
.	.	8Bn/L)	.	.	.	.	.
.	.	8B'/J	.	8g#/)	.	.	.
=40	=40	=40	=40	=40	=40	=40	=40
2r	.	8r	.	(8gn/L	.	2r	.
.	.	(8cn\	.	16e/L	.	.	.
.	.	.	.	16f#/JJ	.	.	.
.	.	8c#\L)	.	8g/L	.	.	.
.	.	8c#'\J	.	8e/J)	.	.	.
=41	=41	=41	=41	=41	=41	=41	=41
2r	.	8r	.	(8f#/L	.	2r	.
.	.	4d\	.	16d/L	.	.	.
.	.	.	.	16e/JJ	.	.	.
.	.	.	.	16fn/LL	.	.	.
.	.	.	.	16e/	.	.	.
.	.	[8D/	.	16f/	.	.	.
.	.	.	.	16d/JJ)	.	.	.
=42	=42	=42	=42	=42	=42	=42	=42
2r	.	8D/L]	.	(8B-/L	.	2r	.
.	.	(16D/L	.	8A/J	.	.	.
.	.	16E/JJ	.	.	.	.	.
.	.	16Fn/LL	.	4G#/)	.	.	.
.	.	16E/	.	.	.	.	.
.	.	16F/	.	.	.	.	.
.	.	16D/JJ)	.	.	.	.	.
=43	=43	=43	=43	=43	=43	=43	=43
4r	.	8C#/L	.	(8B-/L	.	2r	.
.	.	(16c#/L	.	8A/J	.	.	.
.	.	16d/JJ	.	.	.	.	.
8r	.	16e\LL	.	8Gn/L	.	.	.
.	.	16d\	.	.	.	.	.
(8AA/	.	16e\	.	[8g/J)	.	.	.
.	.	16c#\JJ)	.	.	.	.	.
=44	=44	=44	=44	=44	=44	=44	=44
(4.D\)	.	(8A/L	.	(16g/LL]	.	2r	.
.	.	.	.	16f#/J	.	.	.
.	.	8F#/J	.	8d/J	.	.	.
.	.	4G/)	.	8e/L)	.	.	.
8C#/)	.	.	.	8e'/J	.	.	.
=45	=45	=45	=45	=45	=45	=45	=45
(8Cn/L	.	(4A/	.	8r	.	2r	.
16AA/L	.	.	.	(8fn/	.	.	.
16BB-/JJ	.	.	.	.	.	.	.
8C/L	.	[4D/)	.	8f#/L)	.	.	.
8AA/J)	.	.	.	8f#'/J	.	.	.
=46	=46	=46	=46	=46	=46	=46	=46
8BB-/L	.	4D/]	.	8r	.	2r	.
(16GG/L	.	.	.	4g/	.	.	.
16AA/JJ	.	.	.	.	.	.	.
16BB-/LL	.	(4B-/	.	.	.	.	.
16AA/	.	.	.	.	.	.	.
16BB-/	.	.	.	[8G/	.	.	.
16GG/JJ)	.	.	.	.	.	.	.
=47	=47	=47	=47	=47	=47	=47	=47
(8EE-/L	.	8B-/L)	.	8G/L]	.	4r	.
8DD/J	.	(8B-/J	.	(16g/L	.	.	.
.	.	.	.	16a/JJ	.	.	.
8CC#/L	.	8G\L	.	16b-/LL	.	8r	.
.	.	.	.	16a/	.	.	.
[8CCn/J)	.	16g\L	.	16b-/	.	(8ee\	.
.	.	16e\JJ)	.	16g/JJ)	.	.	.
=48	=48	=48	=48	=48	=48	=48	=48
8CC/L]	.	8cn/L	.	2fn/	.	(4.aa\)	.
(8AA/J	.	(8Cn/J	.	.	.	.	.
8BBn/L)	.	8D/L)	.	.	.	.	.
8BB'/J	.	8D'/J	.	.	.	8gg#\)	.
=49	=49	=49	=49	=49	=49	=49	=49
*	*	*	*	*^	*	*	*
8r	.	(4A#/	p	(4G/	2e/	p	(8ggn\L	p
(8Cn/	p	.	.	.	.	.	16ee\L	.
.	.	.	.	.	.	.	16ff#\JJ	.
8C#/L)	.	4E/)	.	4A/)	.	.	8gg\L	.
8C#'/J	.	.	.	.	.	.	8ee\J)	.
*	*	*	*	*v	*v	*	*	*
=50	=50	=50	=50	=50	=50	=50	=50
8r	.	8D/	.	8A/L	.	(8ff#\L	.
4D\	.	[4.Fn/	f	(8B-/J 8d/	f	16dd\L	f
.	.	.	.	.	.	16ee\JJ	.
.	.	.	.	4B-/) 4fn/	.	16ffn\LL	.
.	.	.	.	.	.	16ee\	.
[8DD/	f	.	.	.	.	16ff\	.
.	.	.	.	.	.	16dd\JJ)	.
=51	=51	=51	=51	=51	=51	=51	=51
8DD/L]	p	4F/]	p	&(8B-/L&) 8f#/	p	(8b-/L	p
(16DD/L	.	.	.	(8fn/J	.	8a/J	.
16EE/JJ	.	.	.	.	.	.	.
16FFn/LL	.	8r	.	8Bn/L	.	4g#/)	.
16EE/	.	.	.	.	.	.	.
16FF/	.	(8fn\	.	8b/J)	.	.	.
16DD/JJ)	.	.	.	.	.	.	.
=52	=52	=52	=52	=52	=52	=52	=52
(8CC#/L	.	4A/)	.	(8e/L	.	(8a/L	.
16CCn/L	.	.	.	8e-/J	.	8gn/J	.
16DD/JJ	.	.	.	.	.	.	.
16EE-/LL	.	(8e-\L	.	8A/L	.	8f#/L	.
16DD/	.	.	.	.	.	.	.
16CC/	.	16d\L	.	(8f#/J) 8a/	.	(8dd/J)	.
16Cn/JJ)	.	16A\JJ)	.	.	.	.	.
=53	=53	=53	=53	=53	=53	=53	=53
(8BB-/L	.	4B-/	.	(16f#/LL) 16a/	.	(8dd\L)	.
.	.	.	.	16g/)	.	.	.
8AA/J	.	.	.	(16d/	.	8ffn\J	.
.	.	.	.	16en/JJ	.	.	.
4GG#/)	.	4r	.	16fn/LL	.	8bn\L	.
.	.	.	.	16e/	.	.	.
.	.	.	.	16f/	.	8bb\J)	.
.	.	.	.	16d/JJ)	.	.	.
=54	=54	=54	=54	=54	=54	=54	=54
(8AA/L	.	4r	.	(8c#/L	.	(8ee\L	.
8GGn/J	.	.	.	16cn/L	.	8ee-\J	.
.	.	.	.	16d/JJ	.	.	.
8FF#/L	.	8r	.	16e-/LL	.	16a\LL	.
.	.	.	.	16d/	.	16aa\J	.
(8FFn/J)	.	(8d\	.	16c/	.	(8aa-\J)	.
.	.	.	.	16d/JJ)	.	.	.
=55	=55	=55	=55	=55	=55	=55	=55
(8FFn/L)	.	4.g\	.	8B/	.	(16aa-\LL)	.
.	.	.	.	.	.	16gg\J)	.
8EE-/J	.	.	.	8r	.	(8g\J	.
8DD/L)	.	.	.	4r	.	8an/L	.
(8D/J	.	8f#\)	.	.	.	8a/J)	.
=56	=56	=56	=56	=56	=56	=56	=56
(8D/L)	.	(8fn\L	.	4r	.	8r	.
8AA-/J	.	16d\L	.	.	.	(8b-\	.
.	.	16e-\JJ	.	.	.	.	.
8GG/L	.	8f\L	.	8r	.	8bn\L)	.
8Fn/J)	.	(8d\J)	.	(8g/	.	8b'\J	.
=57	=57	=57	=57	=57	=57	=57	=57
8E-\	.	(16d/LL)	.	4.ccn\	.	8r	.
.	.	16cn/J)	.	.	.	.	.
8r	.	(8Cn/J	.	.	.	(16a-/LL	.
.	.	.	.	.	.	16g/JJ	.
8r	.	8D/L)	.	.	.	8fn/L	.
(8GG/	.	8D'/J	.	8b\)	.	8g/J)	.
=58	=58	=58	=58	=58	=58	=58	=58
4.C#/	.	8r	.	(8b-/L	.	8r	.
.	.	(8E-/	.	16g/L	.	(16B-/LL	.
.	.	.	.	16a-/JJ	.	16A-/JJ	.
.	.	8En/L)	.	8b-/L	.	8G/L)	.
8Cn/)	.	(8E/J	.	(8g/J)	.	(8gg/J	.
=59	=59	=59	=59	=59	=59	=59	=59
8BB-/L	f	8E/L)	f	8g\L)	f	(4.ddd-\)	f
(16GG/L	.	(16B-/L	.	(8ff-\J	.	.	.
16AA-/JJ	.	16A-/JJ	.	.	.	.	.
8BB-/L	.	8G/L	.	8ee-\L)	.	.	.
(8EE-/J)	.	[8A-/J)	.	8ee-'\J	.	8cccn\)	.
=60	=60	=60	=60	=60	=60	=60	=60
(2EE-/)	.	8A-/L]	.	8r	.	(4.ccc-\	.
.	.	(16A-/L	.	(8dd\	.	.	.
.	.	16G/JJ	.	.	.	.	.
.	.	8Fn/L	.	8dd-\L	.	.	.
.	.	(8G/J)	.	(8dd-\J)	.	8bb-\)	.
=61	=61	=61	=61	=61	=61	=61	=61
(2EE-/)	.	8G/L)	.	8dd-\L)	.	(4.ff-\	.
.	.	(16d-/L	.	(16b-\L	.	.	.
.	.	16c-/JJ	.	16a-\JJ	.	.	.
.	.	8B-/L	.	8g/L	.	.	.
.	.	(8c-/J)	.	(8a-/J)	.	8ee-\)	.
=62	=62	=62	=62	=62	=62	=62	=62
4.EE-/)	.	8c-/L)	.	8a-/L)	.	(4.dd\	.
.	.	(16c-/L	.	(16a-/L	.	.	.
.	.	16B-/JJ	.	16g/JJ	.	.	.
.	.	8A-/L	.	8fn/L	.	.	.
8FF-/	.	8B-/J)	.	8g/J)	.	8cc#\)	.
=63	=63	=63	=63	=63	=63	=63	=63
2GG/	.	(4E/	.	(4b-\	.	(2cc#\	.
.	.	(4E-/)	.	(4B-/)	.	.	.
=64	=64	=64	=64	=64	=64	=64	=64
(4G\	.	(4D#/)	.	(4B-/)	.	(4cc#\)	.
4A-\)	.	4cn\)	.	4A-/)	.	4ccn\)	.
=65	=65	=65	=65	=65	=65	=65	=65
8.A-\	pp	2r	.	2r	.	2r	.
16r	.	.	.	.	.	.	.
8.G\	.	.	.	.	.	.	.
16r	.	.	.	.	.	.	.
=66	=66	=66	=66	=66	=66	=66	=66
8.Fn\	.	2r	.	(2ffn\	pp	(2aa-\	pp
16r	.	.	.	.	.	.	.
8.E-\	.	.	.	.	.	.	.
16r	.	.	.	.	.	.	.
=67	=67	=67	=67	=67	=67	=67	=67
8.D-\	.	4r	.	(2ffn\)	.	2aa-\)	.
16r	.	.	.	.	.	.	.
8.Cn/	.	(4dd\	.	.	.	.	.
16r	.	.	.	.	.	.	.
=68	=68	=68	=68	=68	=68	=68	=68
8.BB/	.	(4dd\)	pp	(4ffn\)	.	2gg\	.
16r	.	.	.	.	.	.	.
8.Cn/	.	8g\)	.	8ee-\)	.	.	.
.	.	8r	.	8r	.	.	.
16r	.	.	.	.	.	.	.
=69	=69	=69	=69	=69	=69	=69	=69
8.G-\	.	2r	.	2r	.	2r	.
16r	.	.	.	.	.	.	.
8.Fn\	.	.	.	.	.	.	.
16r	.	.	.	.	.	.	.
=70	=70	=70	=70	=70	=70	=70	=70
8.E-\	.	2r	.	(2ee-\	.	(2gg-\	.
16r	.	.	.	.	.	.	.
8.D-\	.	.	.	.	.	.	.
16r	.	.	.	.	.	.	.
=71	=71	=71	=71	=71	=71	=71	=71
8.C-/	.	4r	.	(2ee-\)	.	2gg-\)	.
16r	.	.	.	.	.	.	.
8.BB-/	.	[4ccn\	.	.	.	.	.
16r	.	.	.	.	.	.	.
=72	=72	=72	=72	=72	=72	=72	=72
8.AA/	.	(4cc\]	.	(4ee-\)	.	2ffn\	.
16r	.	.	.	.	.	.	.
8.BB-/	.	8fn\)	.	8dd-\)	.	.	.
.	.	8r	.	8r	.	.	.
16r	.	.	.	.	.	.	.
=73	=73	=73	=73	=73	=73	=73	=73
8.F-\	.	2r	.	2r	.	2r	.
16r	.	.	.	.	.	.	.
8.E-\	.	.	.	.	.	.	.
16r	.	.	.	.	.	.	.
=74	=74	=74	=74	=74	=74	=74	=74
8.C#/	.	2r	.	[2cc#\	.	[2ee\	.
16r	.	.	.	.	.	.	.
8.BBn/	.	.	.	.	.	.	.
16r	.	.	.	.	.	.	.
=75	=75	=75	=75	=75	=75	=75	=75
8.BB-/	.	4r	.	4cc#\]	.	4ee\]	.
16r	.	.	.	.	.	.	.
[4AA/	.	[4e\	.	[4cc#\	.	[4gg\	.
=76	=76	=76	=76	=76	=76	=76	=76
2AA/]	.	2e\]	.	2cc#\]	.	2gg\]	.
=77	=77	=77	=77	=77	=77	=77	=77
2r	.	(2b-\	pp	2r	.	2r	.
=78	=78	=78	=78	=78	=78	=78	=78
2r	.	(4.b-\)	.	2r	.	8r	.
.	.	.	.	.	.	16cc#'\LL	.
.	.	.	.	.	.	16dd'\JJ	.
.	.	.	.	.	.	16cc#'\LL	.
.	.	.	.	.	.	16dd'\	.
.	.	8a\)	.	.	.	16ee'\	.
.	.	.	.	.	.	[16gg\JJ	.
=79	=79	=79	=79	=79	=79	=79	=79
2r	.	(4.dd\	p	2r	.	16gg\LL]	p
.	.	.	.	.	.	16ff#'\	.
.	.	.	.	.	.	16aa'\	.
.	.	.	.	.	.	16dd'\JJ	.
.	.	.	.	.	.	16ee'\LL	.
.	.	.	.	.	.	16aa'\JJ	.
.	.	8cc#\)	.	.	.	8r	.
=80	=80	=80	=80	=80	=80	=80	=80
2r	.	(8ccn\L	.	2r	.	16r	.
.	.	.	.	.	.	16aa'\LL	.
.	.	16a\L	.	.	.	16ddd'\	.
.	.	16b-\JJ	.	.	.	16gg'\JJ	.
.	.	8cc\L	.	.	.	16ff#'\LL	.
.	.	.	.	.	.	16ddd'\JJ	.
.	.	8a\J)	.	.	.	8r	.
=81	=81	=81	=81	=81	=81	=81	=81
2r	.	(8b-\L	.	4r	.	16r	.
.	.	.	.	.	.	16gg'\LL	.
.	.	16g\L	.	.	.	16aa#'\	.
.	.	16a\JJ	.	.	.	16ee-'\JJ	.
.	.	16b-\LL	.	8r	.	16dd'\LL	.
.	.	16a\	.	.	.	16gg'\	.
.	.	16b-\)	.	(8d/	.	16g'\	.
.	.	[16d\JJ	.	.	.	16een'\JJ	.
=82	=82	=82	=82	=82	=82	=82	=82
2r	.	16d\LL]	.	(4.a/)	.	16ee'/LL	.
.	.	16c#'\	.	.	.	16e'/JJ	.
.	.	16e'\	.	.	.	8r	.
.	.	16A'\JJ	.	.	.	.	.
.	.	16Bn'\LL	.	.	.	16r	.
.	.	16e'\JJ	.	.	.	16b\LL	.
.	.	8r	.	8g#/)	.	16dd\	.
.	.	.	.	.	.	16g#\JJ	.
=83	=83	=83	=83	=83	=83	=83	=83
4r	.	16r	.	(8gn/L	.	16ee\LL	.
.	.	16E'/LL	.	.	.	16gn\JJ	.
.	.	16A'/	.	16e/L	.	8r	.
.	.	16C#'/JJ	.	16f#/JJ	.	.	.
8r	.	16C#'/LL	.	8g/L	.	16r	.
.	.	16A'/	.	.	.	16ee\LL	.
(8GG/	.	16C#'/	.	[8e/J)	.	16gg\	.
.	.	16B-'/JJ	.	.	.	16cc#\JJ	.
=84	=84	=84	=84	=84	=84	=84	=84
(4.C#/)	.	16G'/LL	.	16e/LL]	.	16ee\LL	.
.	.	16E'/JJ	.	16B-'/	.	16g\JJ	.
.	.	8r	.	16e'/	.	8r	.
.	.	.	.	16G'/JJ	.	.	.
.	.	16r	.	16An'/LL	.	8r	.
.	.	16a\LL	.	16e'/	.	.	.
8Cn/)	.	16ccn\	.	16A'/	.	(8aa\	.
.	.	16fn\JJ	.	16fn'/JJ	.	.	.
=85	=85	=85	=85	=85	=85	=85	=85
(8BB/L	.	16fn\LL	.	16r	.	(4.ddd\)	.
.	.	16d\JJ	.	16g#'/LL	.	.	.
16GG#/L	.	8r	.	16b'/	.	.	.
16AA/JJ	.	.	.	16fn'/JJ	.	.	.
8BB/L	.	16r	.	16e'/LL	.	.	.
.	.	16e\LL	.	16g#'/	.	.	.
8EE/J)	.	16a\	.	16e'/	.	8ccc#\)	.
.	.	16A\JJ	.	16a'/JJ	.	.	.
=86	=86	=86	=86	=86	=86	=86	=86
(4DD#/	.	8r	.	16r	.	(8cccn\L	.
.	.	.	.	16a'/LL	.	.	.
.	.	16f#\LL	.	16ccn'/	.	16aa\L	.
.	.	16A\JJ	.	16f#'/JJ	.	16bb\JJ	.
4DDn/)	.	8r	.	16r	.	8ccc\L	.
.	.	.	.	16g#'/LL	.	.	.
.	.	16fn\LL	.	16b'/	.	[8bb\J)	.
.	.	16G#\JJ	.	16fn'/JJ	.	.	.
=87	=87	=87	=87	=87	=87	=87	=87
8CC#/L	f	8r	.	16r	.	8bb\L]	f
.	.	.	.	16g#'\LL	f	.	.
[8CCn/J	.	16e/LL	f	16ee'\	.	(16gg#\L	.
.	.	16E/JJ	.	16a'\JJ	.	16aa\JJ	.
(16CC/LL]	.	8r	.	16ee'\LL	.	16bb\LL	.
16Cn/	.	.	.	16a'\	.	16aa\	.
16BB/	p	(8e\	p	16dd'\	p	16gg#\	p
16EE/JJ)	.	.	.	16b'\JJ	.	[16ddd\JJ)	.
=88	=88	=88	=88	=88	=88	=88	=88
8AA/	.	(4.A/)	.	8ccn\	.	16ddd\LL]	.
.	.	.	.	.	.	16cccn'\	.
8r	.	.	.	8r	.	16a'\	.
.	.	.	.	.	.	16ee'\JJ	.
4r	.	.	.	4r	.	16ccn'\LL	.
.	.	.	.	.	.	16a'\	.
.	.	8B-/)	.	.	.	16dd'\	.
.	.	.	.	.	.	16a'\JJ	.
=89	=89	=89	=89	=89	=89	=89	=89
4r	.	(8Bn\L	.	2r	.	16dd'\LL	.
.	.	.	.	.	.	16a'\	.
.	.	16d\L	.	.	.	16ffn'\	.
.	.	16c#\JJ	.	.	.	16ee'\JJ	.
8r	.	8B\L)	.	.	.	16dd'\LL	.
.	.	.	.	.	.	16g#'\	.
(8DD/	.	[8d\J	.	.	.	16ff'\	.
.	.	.	.	.	.	16g#'\JJ	.
=90	=90	=90	=90	=90	=90	=90	=90
(4.AA/)	.	(8d\L]	.	16r	.	16ee'\LL	.
.	.	.	.	16e'/LL	.	16aa'\JJ	.
.	.	8c#\J)	.	16e'/	.	8r	.
.	.	.	.	16A'/JJ	.	.	.
.	.	4r	.	16A#'/LL	.	4r	.
.	.	.	.	16e'/	.	.	.
8GG#/)	.	.	.	16B'/	.	.	.
.	.	.	.	16e'/JJ	.	.	.
=91	=91	=91	=91	=91	=91	=91	=91
(8GGn/L	.	4r	.	16c#'/LL	.	2r	.
.	.	.	.	16e'/	.	.	.
16EE/L	.	.	.	16c#'/	.	.	.
16FF#/JJ	.	.	.	16a#'/JJ	.	.	.
8GG'/L)	.	8r	.	16c#'/LL	.	.	.
.	.	.	.	16a#'/	.	.	.
[8GG/J	.	(8A/	.	16c#'/	.	.	.
.	.	.	.	16an'/JJ	.	.	.
=92	=92	=92	=92	=92	=92	=92	=92
(8GG/L]	.	(4.D/)	.	16a'/LL	.	16r	.
.	.	.	.	16d'/JJ	.	16d'/LL	.
8FF#/J)	.	.	.	8r	.	16d'/	.
.	.	.	.	.	.	16a'/JJ	.
4r	.	.	.	4r	.	16f#/LL	.
.	.	.	.	.	.	16d/	.
.	.	8D#/)	.	.	.	16g/	.
.	.	.	.	.	.	16c#/JJ	.
=93	=93	=93	=93	=93	=93	=93	=93
4r	.	(8E/L	.	2r	.	16g/LL	.
.	.	.	.	.	.	16cn/	.
.	.	16G/L	.	.	.	16b-/	.
.	.	16F#/JJ	.	.	.	16a/JJ	.
8r	.	8E/L)	.	.	.	16g/LL	.
.	.	.	.	.	.	16c/	.
(8GG/	.	[8G/J	.	.	.	16b-/	.
.	.	.	.	.	.	16c/JJ	.
=94	=94	=94	=94	=94	=94	=94	=94
(4.D\)	.	(8G/L]	.	16r	.	16a\LL	.
.	.	.	.	16a'/LL	.	16dd\JJ	.
.	.	8F#/J)	.	16a'/	.	8r	.
.	.	.	.	16d'/JJ	.	.	.
.	.	4r	.	16e-/LL	.	4r	.
.	.	.	.	16a/	.	.	.
8C#/	.	.	.	16en/	.	.	.
.	.	.	.	16a/JJ	.	.	.
=95	=95	=95	=95	=95	=95	=95	=95
8Cn/L	.	4r	.	16fn/LL	.	2r	.
.	.	.	.	16a/	.	.	.
16AA/L	.	.	.	16f#/	.	.	.
16AA#/JJ	.	.	.	16dd/JJ	.	.	.
8C'/L)	.	8r	.	16f#/LL	.	.	.
.	.	.	.	16dd/	.	.	.
[8C/J	.	(8d\	.	16f#/	.	.	.
.	.	.	.	16dd/JJ	.	.	.
=96	=96	=96	=96	=96	=96	=96	=96
(8C/L]	.	[2G/)	p	16fn'/LL	.	8r	.
.	.	.	.	16dd'/	.	.	.
8BB/J)	.	.	.	16f'/	.	(8B/	.
.	.	.	.	16dd'/JJ	.	.	.
8r	.	.	.	16B'/LL	.	[4fn/)	p
.	.	.	.	16d'/	.	.	.
(8D\	.	.	.	16B'/	.	.	.
.	.	.	.	16d'/JJ	.	.	.
=97	=97	=97	=97	=97	=97	=97	=97
4.GG/)	p	4.G/]	.	16B'/LL	.	8f/L]	.
.	.	.	.	16d'/J	.	.	.
.	.	.	.	(8b/J	.	16d'/L	.
.	.	.	.	.	.	16B'/JJ	.
.	.	.	.	8ffn\L	.	16b'/LL	.
.	.	.	.	.	.	16d'/	.
8Cn/	.	(8G/	.	8ee\J)	.	16b-'/	.
.	.	.	.	.	.	16g'/JJ	.
=98	=98	=98	=98	=98	=98	=98	=98
4r	.	[2Cn/)	p	16g'/LL	p	8r	.
.	.	.	.	16b-'/	.	.	.
.	.	.	.	16B-'/	.	(8e/	p
.	.	.	.	16g'/JJ	.	.	.
8r	.	.	.	16G'/LL	.	(4b-\)	.
.	.	.	.	16e'/	.	.	.
(8GG/	p	.	.	16G'/	.	.	.
.	.	.	.	16e'/JJ	.	.	.
=99	=99	=99	=99	=99	=99	=99	=99
4.CC#/)	.	4.C/]	.	16G'/LL	.	8b-/L)	.
.	.	.	.	16e'/J	.	.	.
.	.	.	.	(8ee/J	.	16g'/L	.
.	.	.	.	.	.	16e'/JJ	.
.	.	.	.	8bb-\L	.	16ee'\LL	.
.	.	.	.	.	.	16g'\	.
8FF#/	.	(8cn\	p	8aa\J)	.	16ee-'\	.
.	.	.	.	.	.	16a'\JJ	.
=100	=100	=100	=100	=100	=100	=100	=100
4r	.	[2F#/)	.	16e-'/LL	.	8r	.
.	.	.	.	16ccn'/	.	.	.
.	.	.	.	16cn'/	.	(8A/	.
.	.	.	.	16e-'/JJ	.	.	.
8r	.	.	.	16A'/LL	.	(4e-/)	p
.	.	.	.	16c'/	.	.	.
(8Cn/	p	.	.	16A'/	.	.	.
.	.	.	.	16c'/JJ	.	.	.
=101	=101	=101	=101	=101	=101	=101	=101
4.FF#/)	.	4.F#/]	.	16A'/LL	.	8e-/L)	.
.	.	.	.	16cn'/J	.	.	.
.	.	.	.	(8a/J	.	16cn'/L	.
.	.	.	.	.	.	16A'/JJ	.
.	.	.	.	8ee-\L	.	16ccn'/LL	.
.	.	.	.	.	.	16a'/	.
8BB/	.	(8d\	.	8dd\J)	.	16g#'/	.
.	.	.	.	.	.	16fn'/JJ	.
=102	=102	=102	=102	=102	=102	=102	=102
4r	.	[2G#/)	.	16fn/LL	.	8r	.
.	.	.	.	16dd/	.	.	.
.	.	.	.	16d/	.	(8B/	p
.	.	.	.	16f/JJ	.	.	.
8r	.	.	.	16B/LL	.	[4fn/)	.
.	.	.	.	16d/	.	.	.
(8D\	.	.	.	16B/	.	.	.
.	.	.	.	16d/JJ	.	.	.
=103	=103	=103	=103	=103	=103	=103	=103
4.GG#/)	p	4.G#/]	.	16B'/LL	.	8f/L]	.
.	.	.	.	16d'/J	.	.	.
.	.	.	.	(8b/J	.	16fn'/L	.
.	.	.	.	.	.	16d'/JJ	.
.	.	.	.	8ffn/L)	.	16b'/LL	.
.	.	.	.	.	.	16d'/J	.
8AA/	.	[8fn\	.	16d'/L	.	(8dd/J	.
.	.	.	.	16a'/JJ	.	.	.
=104	=104	=104	=104	=104	=104	=104	=104
4.AA/	f	8f\L]	f	16d'/LL	f	4.aa\)	f
.	.	.	.	16a'/	.	.	.
.	.	(8fn\J	.	16a'/	.	.	.
.	.	.	.	16dd'/JJ	.	.	.
.	.	[4B/)	.	16g#'\LL	.	.	.
.	.	.	.	16dd'\	.	.	.
(8Fn\	.	.	.	16g#'\	.	(8dd\	.
.	.	.	.	16dd'\JJ	.	.	.
=105	=105	=105	=105	=105	=105	=105	=105
4.AA/)	.	8B\L]	.	16gn\LL	.	4.gg\)	.
.	.	.	.	16dd\	.	.	.
.	.	(8e\J	.	16g\	.	.	.
.	.	.	.	16dd\JJ	.	.	.
.	.	(4B-/)	.	16g/LL	.	.	.
.	.	.	.	16cc#/	.	.	.
(8E\	.	.	.	16g/	.	(8cc#\	.
.	.	.	.	16cc#/JJ	.	.	.
=106	=106	=106	=106	=106	=106	=106	=106
4.AA/)	.	8B-\L)	.	16g/LL	.	4.gg\)	.
.	.	.	.	16ccn/	.	.	.
.	.	(8e-\J	.	16g/	.	.	.
.	.	.	.	16cc/JJ	.	.	.
.	.	8A/L)	.	16g/LL	.	.	.
.	.	.	.	16cc/	.	.	.
(8D\	.	(8A/J	.	16f#/	.	(8ccn\	.
.	.	.	.	16cc/JJ	.	.	.
=107	=107	=107	=107	=107	=107	=107	=107
8DD/L)	.	8G\L)	.	16fn/LL	.	8ffn\L)	.
.	.	.	.	16b/	.	.	.
(8D/J	.	(8g#\J	.	16f/	.	(8b\J	.
.	.	.	.	16b/JJ	.	.	.
8DD/L)	.	8gn\L)	.	16b-/LL	.	8ee\L)	.
.	.	.	.	16cc#/	.	.	.
(8D/J	.	(8g\J	.	16c#/	.	(8b-\J	.
.	.	.	.	16e/JJ	.	.	.
=108	=108	=108	=108	=108	=108	=108	=108
8DD/L)	.	8c#\L)	.	16g/LL	.	8ee\L)	.
.	.	.	.	16b-/	.	.	.
(8D/J	.	(8en\J	.	16B-/	.	(8g\J	.
.	.	.	.	16c#/JJ	.	.	.
8DD/L)	.	8G/L)	.	16e/LL	.	8cc#/L)	.
.	.	.	.	16g/	.	.	.
(8D/J	.	(8B-/J	.	16G/	.	(8e/J	.
.	.	.	.	16c#/JJ	.	.	.
=109	=109	=109	=109	=109	=109	=109	=109
8DD/L)	.	8E/L)	.	16G/LL	.	8b-/L)	.
.	.	.	.	16c#/	.	.	.
(8D/J	.	(8G/J	.	16B-/	.	(8c#/J	.
.	.	.	.	16c#/JJ	.	.	.
8DD/L)	.	8E/L)	.	16G/LL	.	8g/L)	.
.	.	.	.	16c#/	.	.	.
(8D/J	.	(8G/J	.	16B-/	.	(8B-/J	.
.	.	.	.	16c#/JJ	.	.	.
=110	=110	=110	=110	=110	=110	=110	=110
8DD/)	.	8E/)	.	16G/LL	.	8g/)	.
.	.	.	.	16c#/JJ	.	.	.
8r	.	8r	.	8r	.	8r	.
8r	.	8r	.	8r	.	8r	.
(8D\	p	(8G/	p	16B-'/LL	p	(8B-/	p
.	.	.	.	16c#'/JJ	.	.	.
=111	=111	=111	=111	=111	=111	=111	=111
8DD/)	.	8E/)	.	16G'/LL	.	8g/)	.
.	.	.	.	16c#'/JJ	.	.	.
8r	.	8r	.	8r	.	8r	.
8r	.	8r	.	8r	.	8r	.
8D\	pp	(8G/	pp	16B-'/LL	pp	(8c#/	pp
.	.	.	.	16c#'/JJ	.	.	.
=112	=112	=112	=112	=112	=112	=112	=112
8.D\	.	8F#/)	.	16A'/LL	.	8d/)	.
.	.	.	.	16d'/JJ	.	.	.
.	.	8r	.	8r	.	4r	.
16r	.	.	.	.	.	.	.
8.C#/	.	4r	.	4r	.	.	.
.	.	.	.	.	.	8r	.
16r	.	.	.	.	.	.	.
=113	=113	=113	=113	=113	=113	=113	=113
8.BB/	.	2r	.	2r	.	2r	.
16r	.	.	.	.	.	.	.
8.AA/	.	.	.	.	.	.	.
16r	.	.	.	.	.	.	.
=114	=114	=114	=114	=114	=114	=114	=114
8.GG/	.	2r	.	2r	.	2r	.
16r	.	.	.	.	.	.	.
8FF#'/L	.	.	.	.	.	.	.
8GG#'/J	.	.	.	.	.	.	.
=115	=115	=115	=115	=115	=115	=115	=115
2AA/	.	8r	.	8r	.	8r	.
.	.	4e\	.	4g/	.	(4a/	.
.	.	8e\	.	8g/	.	16b\LL	.
.	.	.	.	.	.	16cc#\JJ)	.
=116	=116	=116	=116	=116	=116	=116	=116
4r	.	(8d\L	.	(8f#/L	.	(4dd\	.
.	.	8f#\J	.	8a/J	.	.	.
[4d\	.	8a\L	.	8dd\L	.	[4ff#\)	.
.	.	8f#\J)	.	8a\J)	.	.	.
=117	=117	=117	=117	=117	=117	=117	=117
2d\]	.	(8ccn\L	.	(8dd\L	.	4ff#\]	.
.	.	8a\J	.	8ccn\J	.	.	.
.	.	8cc\L	.	8dd\L	.	(8ee\L	.
.	.	8a\J)	.	8cc\J)	.	8ff#\J)	.
=118	=118	=118	=118	=118	=118	=118	=118
(4G\	.	(8b-\L	.	(8dd\L	.	[4gg\	.
.	.	8g\J	.	8b-\J	.	.	.
(4g\)	.	8b-\L	.	8dd\L	.	(32gg\LLL]	.
.	.	.	.	.	.	32aa\	.
.	.	.	.	.	.	32gg\	.
.	.	.	.	.	.	32ff#\J)	.
.	.	8a\J	.	8ccn\J	.	16gg'\	.
.	.	.	.	.	.	16aa'\JJ	.
=119	=119	=119	=119	=119	=119	=119	=119
4g\)	.	8g\L	.	8b-\L	.	(4bb-\	.
.	.	8e\J	.	8cc#\J	.	.	.
&(4d\&)	.	8f#\L)	.	8dd\L)	.	8aa\L)	.
.	.	8a\J	.	8ff#\J	.	8aa\J	.
=120	=120	=120	=120	=120	=120	=120	=120
4d\	.	8a\L	.	8ff#\L	.	(8aa\L	.
.	.	(8dd\J	.	(8ff#\J	.	8ddd\J	.
4r	.	8ee\L	.	8gg\L	.	8ccc#\L	.
.	.	8dd\J	.	8ff#\J	.	8ddd\J	.
=121	=121	=121	=121	=121	=121	=121	=121
4A\	.	8cc#\L	.	8ee\L	.	8.eee\L	.
.	.	8ee\J	.	8gg\J	.	.	.
.	.	.	.	.	.	16ccc#\Jk)	.
8r	.	8dd#\L	.	8ff#\L	.	8aa\L	.
8c#\	.	8ee\J)	.	8gg\J)	.	8aa\J	.
=122	=122	=122	=122	=122	=122	=122	=122
(8d\L	.	4ddn\	.	4ff#\	.	4aa\	.
8f#\J	.	.	.	.	.	.	.
8d\L	.	[4dd\	.	[4ffn\	.	[4bb\	.
8g#\J)	.	.	.	.	.	.	.
=123	=123	=123	=123	=123	=123	=123	=123
(8A\L	p	(4dd\]	p	(4ff\]	p	(4bb\]	p
8g#\J	.	.	.	.	.	.	.
8a\L)	.	8cc#\)	.	8ee\)	.	8aa\)	.
(8a\J	.	8r	.	8r	.	8r	.
=124	=124	=124	=124	=124	=124	=124	=124
*clefC4	*clefG2	*	*	*	*	*	*
8b-\L	.	8A/	.	2ee\	.	2gg\	.
8a\J	.	4r	.	.	.	.	.
8cc#\L	.	.	.	.	.	.	.
8a\J)	.	8r	.	.	.	.	.
=125	=125	=125	=125	=125	=125	=125	=125
(8b-\L	.	8A/	.	4.dd\	.	(4.ff#\	.
8a\J	.	8r	.	.	.	.	.
8dd\L	.	8r	.	.	.	.	.
8a\J	.	(8f#\	.	8dd\	.	8ddd\	.
=126	=126	=126	=126	=126	=126	=126	=126
8g\L	.	4e\	.	8cc#\L	.	4ccc#\)	.
8a\J	.	.	.	8gg\J	.	.	.
8f#\L	.	4d\)	.	8r	.	4ddd\	.
8a\J)	.	.	.	8ff#\	.	.	.
=127	=127	=127	=127	=127	=127	=127	=127
8e\	.	8c#\L	.	8r	.	8fff#\L	.
4r	.	8a\J	.	8cc#\ 8ee\	.	[8eee\J	.
.	.	8a\L	.	4r	.	(16eee\LL]	.
.	.	.	.	.	.	32ddd\L	.
.	.	.	.	.	.	32ccc#\J)	.
8r	.	8a\J	.	.	.	16bb'\	.
.	.	.	.	.	.	16aa'\JJ	.
=128	=128	=128	=128	=128	=128	=128	=128
2e\	.	(8g\L	.	(4cc#\	.	(8bb-\L	.
.	.	8a\J	.	.	.	8aa\J	.
.	.	8g\L	.	8b-/L	.	8ccc#\L	.
.	.	8a\J)	.	8a/J)	.	8aa\J	.
=129	=129	=129	=129	=129	=129	=129	=129
8d\L	.	(8f#\L	.	8ff#\L	.	8ddd\L	.
8d\J	.	8a\J	.	(8ff#\J	.	8aa\J	.
[4d#\	.	8f#\L	.	8aa\L	.	8cccn\L	.
.	.	8a\J)	.	8ff#\J	.	8aa\J	.
=130	=130	=130	=130	=130	=130	=130	=130
8d#\]	.	(8f#\L	.	8aa\L	.	8bbn\L	.
4d#\	.	8b\J	.	8ff#\J	.	8aa\J	.
.	.	8f#\L	.	8ff#\L	.	8bb\L	.
[8e\	.	8g\J)	.	8bn\J	.	8gg\J	.
=131	=131	=131	=131	=131	=131	=131	=131
8e\]	.	(8g\L	.	8gg\L	.	8aa#\L	.
4e\	.	8cc#\J	.	8a#\J	.	8gg\J	.
.	.	8G/L	.	8gg\L	.	8aan\L	.
*clefF4	*clefF4	*	*	*	*	*	*
[8E\	.	8c#/J)	.	8an\J)	.	8gg\J	.
=132	=132	=132	=132	=132	=132	=132	=132
8E\L]	.	(8G/L	.	(8gg\L	.	8aa\L	.
(8E\J	.	8c#/J	.	8a\J	.	8gg\J	.
8F#\L)	.	8A/L	.	8ff#\L	.	8aa\L	.
(8F#\J	.	[8d/J)	.	8a\J)	.	16ff#\L	.
.	.	.	.	.	.	16ddd\JJ)	.
=133	=133	=133	=133	=133	=133	=133	=133
8G\L)	p	8d\L]	p	8b\L	p	(8bb\L	p
(8G\J	.	(8e\J	.	(8b\J	.	16gg\L	.
.	.	.	.	.	.	16ee\JJ)	.
8A'\L)	.	8e'\L)	.	8g'\L)	.	8cc#'\L	.
8A'\J	.	8e'\J 8cc#'\	.	8ee'\J	.	8aa'\J	.
=134	=134	=134	=134	=134	=134	=134	=134
8d\	.	8.ccn\	.	8.dd#\	.	8a\ 8ff#\	.
8r	.	.	.	.	.	4r	.
.	.	16r	.	16r	.	.	.
*clefC4	*clefC4	*	*	*	*	*	*
8.dd\	.	4r	.	4r	.	.	.
.	.	.	.	.	.	8r	.
16r	.	.	.	.	.	.	.
=135	=135	=135	=135	=135	=135	=135	=135
*clefF4	*clefF4	*	*	*	*	*	*
8d\	.	4cc#\	.	4ee\	.	4a#\ 4gg\	.
8r	.	.	.	.	.	.	.
*clefC4	*clefC4	*	*	*	*	*	*
8.dd\	.	4r	.	4r	.	4r	.
16r	.	.	.	.	.	.	.
=136	=136	=136	=136	=136	=136	=136	=136
*clefF4	*clefF4	*	*	*	*	*	*
8r	.	(8ff#\L	.	8r	.	(8aan\L	.
(8d\	.	8dd\J	.	(8a/	.	8ff#\J	.
8f#\L	.	8a\L	.	8ddn\L	.	8ddd\L	.
8g\J	.	8g\J	.	8b\J	.	8bb\J	.
=137	=137	=137	=137	=137	=137	=137	=137
8a\L	.	8f#\L	.	8a/L	.	8aa\L	.
8A\J)	.	8d\J	.	8f#/J	.	8ff#\J	.
8A\L	.	8c#\L)	.	8e/L)	.	8ee\L	.
8A\J	.	8c#\J	.	8e/J	.	8aa\J)	.
=138	=138	=138	=138	=138	=138	=138	=138
8D\	.	4r	.	8.c#/ 8.e-/	.	8A/ 8f#/	.
8r	.	.	.	.	.	4r	.
.	.	.	.	16r	.	.	.
8.d\	.	8.d	.	4r	.	.	.
.	.	.	.	.	.	8r	.
16r	.	16r	.	.	.	.	.
=139	=139	=139	=139	=139	=139	=139	=139
8D\	.	4r	.	8.c#/ 8.en/	.	8A#/ 8g/	.
8r	.	.	.	.	.	4r	.
.	.	.	.	16r	.	.	.
8.d\	.	8.d	.	4r	.	.	.
.	.	.	.	.	.	8r	.
16r	.	16r	.	.	.	.	.
=140	=140	=140	=140	=140	=140	=140	=140
8r	.	4r	.	(8f#/L	.	(8an/L	.
(8D\	.	.	.	8d/J	.	8f#/J	.
8F#\L	.	8r	.	8a/L	.	8dd\L	.
8G\J	.	8dd\	.	8g/J	.	8b\J	.
=141	=141	=141	=141	=141	=141	=141	=141
8A\L	.	(8dd\L	.	8f#/L	.	8a/L	.
8AA\J	.	8a\J	.	8d/J	.	8f#/J	.
8AA/L)	.	8g\L	.	8c#/L	.	8e/L	.
8AA/J	.	8e\J)	.	8a/J)	.	8c#/J)	.
=142	=142	=142	=142	=142	=142	=142	=142
(8D\L	.	(8f#\L	.	(8a/L	.	4r	.
8d\J	.	8d\J	.	8f#/J	.	.	.
8F#\L	.	8a\L	.	8dd\L	.	8r	.
8G\J	.	8g\J	.	8b\J	.	(8bb\	.
=143	=143	=143	=143	=143	=143	=143	=143
8D\L	.	8f#\L	.	8a/L	.	8aa\L	.
8d\J	.	8d\J	.	8f#/J	.	8ff#\J	.
8F#\L	.	8a\L	.	8dd\L	.	8ddd\L	.
8G\J)	.	8g\J)	.	8b\J)	.	8bb\J)	.
=144	=144	=144	=144	=144	=144	=144	=144
2r	.	(4.dd\	p	4r	.	(8aa\L	.
.	.	.	.	.	.	8ff#\J	p
.	.	.	.	8r	.	8ee\L	.
.	.	8cc#\)	.	(8A/	.	8aa\J)	.
=145	=145	=145	=145	=145	=145	=145	=145
4r	.	&((8ccn\L&)	.	(4.d/)	p	(8aa\L	.
.	.	16a\L	.	.	.	8ff#\J	.
.	.	16b-\JJ	.	.	.	.	.
8r	p	8cc\L	.	.	.	8dd#\L	.
(8DD/	.	8a\J)	.	8cn/)	.	8ff#\J	.
=146	=146	=146	=146	=146	=146	=146	=146
(4.D\)	.	(8b-\L	.	8B-/L	.	8gg'/L)	.
.	.	16g\L	.	(16B-/L	.	8G/J	.
.	.	16a\JJ	.	16cn/JJ	.	.	.
.	.	16b-\LL	.	16d/LL	.	8r	.
.	.	16g\)	.	16B-/	.	.	.
8C#/)	.	16g\	.	16A/	.	(8aa\	.
.	.	16g\JJ	.	16e/JJ)	.	.	.
=147	=147	=147	=147	=147	=147	=147	=147
(8Cn/L	.	(16g\LL	.	8A/L	.	(4.eee-\)	.
.	.	16f#\	.	.	.	.	.
16AA/L	.	16a\	.	(16ccn/L	.	.	.
16BB-/JJ	.	16g\JJ)	.	16b-/JJ	.	.	.
8C/L	.	(8f#\L	.	8a/L	.	.	.
8BB-/J)	.	8g\J)	.	8b-/J)	.	8dddn\)	.
=148	=148	=148	=148	=148	=148	=148	=148
(8AA/L	.	(8A/L	.	(8ee\L	.	(8ccc#\L	.
16FF#/L	.	16cn/L	.	8ee-\J	.	16aa\L	.
16GG/JJ	.	16B-/JJ	.	.	.	16bb-\JJ	.
8AA/L	.	8A/L	.	8f#/L	.	8cccn\L	.
8GG/J)	.	8B-/J)	.	8g/J)	.	8bb-\J)	.
=149	=149	=149	=149	=149	=149	=149	=149
2CCn/	f	(4.g\	f	(8een\L	f	(4.bb-\	f
.	.	.	.	16gg\L	.	.	.
.	.	.	.	16ffn\JJ	.	.	.
.	.	.	.	8ee\L	.	.	.
.	.	8fn\)	.	8ff\J)	.	8aa\)	.
=150	=150	=150	=150	=150	=150	=150	=150
2CCn/	.	(4.g\	.	(8ee\L	.	(4.bb-\	.
.	.	.	.	16gg\L	.	.	.
.	.	.	.	16ffn\JJ	.	.	.
.	.	.	.	8ee\L	.	.	.
.	.	8fn\)	.	8ff\J)	.	8aa\)	.
=151	=151	=151	=151	=151	=151	=151	=151
4.CC#/	p	(8g\L	p	(8ee\L	p	(4.bb-\	p
.	.	16e\L	.	16gg\L	.	.	.
.	.	16f#\JJ	.	16ff#\JJ	.	.	.
.	.	8g\L	.	8ee\L	.	.	.
(16e\LL	.	8cc#\J)	.	8gg\J	.	8aa\)	.
16f#\JJ	.	.	.	.	.	.	.
=152	=152	=152	=152	=152	=152	=152	=152
8g\L	.	(8cc#\L	.	8ee\L	.	(8bb-\L	.
16e\L	.	8ee\J	.	8gg\J	.	8aa\J	.
16f#\JJ	.	.	.	.	.	.	.
8g\L	.	8cc#\L	.	8ee\L	.	8bb-\L	.
16e\L	.	8ee\J)	.	8gg\J)	.	8aa\J)	.
16f#\JJ)	.	.	.	.	.	.	.
=153	=153	=153	=153	=153	=153	=153	=153
*clefC4	*clefG2	*	*	*	*	*	*
2g\	.	8A/	.	2cc#\ 2ee\	.	(8bb-\L	.
.	.	8r	.	.	.	8aa\J	.
.	.	4r	.	.	.	8ccc#\L	.
.	.	.	.	.	.	8aa\J	.
=154	=154	=154	=154	=154	=154	=154	=154
(4.f#\	.	4A/	.	(4dd\	.	8bb-\L	.
.	.	.	.	.	.	8aa\J	.
.	.	4r	.	8a/L	.	8ddd\L	.
8dd\)	.	.	.	8f#/J)	.	8aa\J	.
=155	=155	=155	=155	=155	=155	=155	=155
4cc#\	.	4A/	.	(4e/	.	8gg\L	.
.	.	.	.	.	.	8aa\J	.
4dd\	.	4A/	.	4d/)	.	8ff#\L	.
.	.	.	.	.	.	8aa\J)	.
=156	=156	=156	=156	=156	=156	=156	=156
(8ff#\L	.	4A/	.	4c#/	.	(8ee\L	.
[8ee\J)	.	.	.	.	.	8aa\J)	.
(16ee\LL]	.	4r	.	4r	.	8aa\L	.
32dd\L	.	.	.	.	.	.	.
32cc#\J)	.	.	.	.	.	.	.
16b\	.	.	.	.	.	8aa\J	.
16a\JJ	.	.	.	.	.	.	.
=157	=157	=157	=157	=157	=157	=157	=157
8r	.	(8B-/L	.	(4ee\	.	2gg\	.
8a\	.	8A/J	.	.	.	.	.
8r	.	8c#/L	.	4e/)	.	.	.
8a\	.	8A/J)	.	.	.	.	.
=158	=158	=158	=158	=158	=158	=158	=158
8r	.	(8B-/L	.	(4d/	.	(4.ff#\	.
8a\	.	8A/J	.	.	.	.	.
8r	.	8d/L	.	8f#/L)	.	.	.
8a\	.	8A/J)	.	(8f#/J	.	8ddd\)	.
=159	=159	=159	=159	=159	=159	=159	=159
8r	.	(8e\L	.	8g/L)	.	(4ccc#\	.
8a\	.	8A\J	.	(8g/J	.	.	.
8r	.	8d/L	.	8f#/L)	.	4ddd\)	.
8a\	.	8A/J)	.	(8f#/J	.	.	.
=160	=160	=160	=160	=160	=160	=160	=160
8a\	.	(8c#\	.	8e/)	.	(8fff#\	.
*clefF4	*clefF4	*	*	*	*	*	*
8AA/	.	8A/)	.	8r	.	[8eee\)	.
8AA/	.	8A/	.	4r	.	(16eee\LL]	.
.	.	.	.	.	.	32ddd\L	.
.	.	.	.	.	.	32ccc#\JJJ)	.
(8AA/	.	(8A/	.	.	.	16bb'\LL	.
.	.	.	.	.	.	16aa'\JJ	.
=161	=161	=161	=161	=161	=161	=161	=161
8BB-/L	.	8B-/L	.	2c#/ 2e/	.	(4gg\	.
8AA/J	.	8A/J	.	.	.	.	.
8C#/L	.	8cn/L	.	.	.	4g/)	.
8AA/J)	.	8A/J)	.	.	.	.	.
=162	=162	=162	=162	=162	=162	=162	=162
(8BB-/L	.	(8B-/L	.	4d/ 4f#/	.	(4.f#/	.
8AA/J	.	8A/J	.	.	.	.	.
8D/L	.	8d/L	.	4A/ 4f#/	.	.	.
8DD/J)	.	8D/J)	.	.	.	8dd\)	.
=163	=163	=163	=163	=163	=163	=163	=163
(8AA/L	.	(8A/L	.	4B/ 4d/	.	(4.b\	.
8GG/J	.	8G/J	.	.	.	.	.
8G/L	.	8g\L	.	4b\ 4gg\	.	.	.
8GG/J)	.	8G\J)	.	.	.	8bb\)	.
=164	=164	=164	=164	=164	=164	=164	=164
(8AA/L	.	(8A/L	.	4b\ 4gg\	.	(4ee\	.
8GG/J	.	8G/J	.	.	.	.	.
8AA#/L	.	8A#/L	.	4a#/	.	4ggg\)	.
8EE/J)	.	8E/J)	.	.	.	.	.
=165	=165	=165	=165	=165	=165	=165	=165
(8AAn/L	f	(8C#/L	f	(8gg\L	f	[2ggg\	f
8C#/J	.	8E/J	.	8ee\J	.	.	.
8E\L	.	8An/L	.	8cc#/L	.	.	.
8A\J)	.	8c#/J)	.	8g/J)	.	.	.
=166	=166	=166	=166	=166	=166	=166	=166
(8AA/L	.	(8D/L	.	(8ff#\L	.	(16ggg\LL]	.
.	.	.	.	.	.	16fff#\	.
8D/J	.	8F#/J	.	8dd\J	.	16ccc#\	.
.	.	.	.	.	.	16ddd\JJ	.
8F#\L	.	8A/L	.	8an/L	.	16gg#\LL	.
.	.	.	.	.	.	16aa\)	.
8A\J)	.	8d/J)	.	8f#/J)	.	16ggn'\	.
.	.	.	.	.	.	16ff#'\JJ	.
=167	=167	=167	=167	=167	=167	=167	=167
(8AA/L	p	(8G#/L	p	(8b/L	p	(8ee\	p
8G#\J	.	8b\J	.	8fn/J	.	4dd\	.
8AA\L	.	8e/L	.	8a#/L)	.	.	.
8Gn\J)	.	8E/J)	.	8a#'/J	.	8cc#\)	.
=168	=168	=168	=168	=168	=168	=168	=168
(8AA/L	f	(8C#/L	f	(8g/L	f	[2gg\	f
8C#/J	.	8E/J	.	8e/J	.	.	.
8E\L	.	8A/L	.	8c#/L	.	.	.
8A\J)	.	8c#/J)	.	8G/J)	.	.	.
=169	=169	=169	=169	=169	=169	=169	=169
(8AA/L	.	(8D/L	.	(8f#/L	.	(16gg\LL]	.
.	.	.	.	.	.	16ff#\	.
8D/J	.	8F#/J	.	8d/J	.	16cc#\	.
.	.	.	.	.	.	16dd\JJ	.
8F#\L	.	8A/L	.	8An/L	.	16g#/LL	.
.	.	.	.	.	.	16a/)	.
8A\J)	.	8F#/J)	.	8d/J)	.	16gn'/	.
.	.	.	.	.	.	16f#'/JJ	.
=170	=170	=170	=170	=170	=170	=170	=170
(8AA/L	p	(8F#/L	p	(8A/L	p	(8e/	p
8F#/J	.	8A/J	.	8d/J	.	4d/	.
8AA/L	.	8Fn/L	.	8G#/L	.	.	.
8Fn/J)	.	8G#/J)	.	8d/J)	.	16a/LL	.
.	.	.	.	.	.	16b/JJ)	.
=171	=171	=171	=171	=171	=171	=171	=171
(8AA/L	.	(8E/L	.	(8Gn/L	.	(16b/LK	.
.	.	.	.	.	.	8e/)	.
8E/J	.	8Gn/J	.	8d/J	.	.	.
.	.	.	.	.	.	16a'/Jk	.
8AA/L	.	8E/L	.	8G/L	.	(16a/LK	.
.	.	.	.	.	.	8g#/)	.
8E/J)	.	8G/J)	.	8c#/J)	.	.	.
.	.	.	.	.	.	16a'/Jk	.
=172	=172	=172	=172	=172	=172	=172	=172
2Cn/	.	(8G/L	.	4r	.	(4a/	.
.	.	8F#/J	.	.	.	.	.
.	.	8d/L	.	(8f#/L	.	[4dd\)	.
.	.	8F#/J)	.	8a/J)	.	.	.
=173	=173	=173	=173	=173	=173	=173	=173
4.BB/	.	(8A/L	.	4r	.	4dd\]	.
.	.	8G/J	.	.	.	.	.
.	.	8d/L	.	(8g/L	.	4dd\	.
8AA#/	.	8G#/J)	.	8fn/J)	.	.	.
=174	=174	=174	=174	=174	=174	=174	=174
[2AAn/	p	(8d/L	p	(8fn/L	p	(8dd\L	p
.	.	8A/J	.	8f#/J	.	8ff#\J	.
.	.	.	.	.	.	eeq/LL	.
.	.	.	.	.	.	ff#q/JJ	.
.	.	8d/L	.	8f#/L	.	8aa\L	.
.	.	8A/J)	.	8d/J)	.	8gg#\J	.
=175	=175	=175	=175	=175	=175	=175	=175
4AA/]	.	(8e\L	.	(8g/L	.	8bb\	.
.	.	8c#\J	.	8e/J	.	4aa\	.
4AA/	.	8e\L	.	8g/L	.	.	.
.	.	8c#\J)	.	8e/J)	.	8ggn\)	.
=176	=176	=176	=176	=176	=176	=176	=176
(4CCn/	.	(8d#/L	.	(8g/L	.	(8gg\L	.
.	.	8A/J	.	8d#/J	.	8ff#\J	.
4Cn/)	.	8dn/L	.	8f#/L	.	8ddd\L	.
.	.	8A/J)	.	8dn/J)	.	8ff#\J)	.
=177	=177	=177	=177	=177	=177	=177	=177
4.BB/	.	(8d/L	.	(8g/L	.	(8aa\L	.
.	.	8G/J	.	8d/J	.	8gg\J	.
.	.	8d\L	.	8g/L	.	8ddd\L	.
8AA#/	.	8d\J)	.	8fn/J)	.	8gg#\J)	.
=178	=178	=178	=178	=178	=178	=178	=178
[2AAn/	p	(8d\L	p	(8fn/L	p	(8bb\L	p
.	.	8d\J	.	8f#/J	.	8aa\J	.
.	.	8f#\L	.	8a/L	.	8ddd\L	.
.	.	8d\J)	.	8f#/J)	.	8aa\J)	.
=179	=179	=179	=179	=179	=179	=179	=179
2AA/]	.	(8a\L	.	(8dd\L	.	(8fff#\L	.
.	.	8f#\J	.	8a\J	.	8ddd\J	.
.	.	8d/L	.	8dd\L	.	8fff#\L	.
.	.	8A/J)	.	8a\J)	.	8ddd\J)	.
=180	=180	=180	=180	=180	=180	=180	=180
(8D/L	.	(8F#/L	.	[2dd\ [2ff#\	.	[4aaa\	.
8AA/J	.	8D/J	.	.	.	.	.
8D/L	.	8F#/L	.	.	.	24aaa\LL]	.
.	.	.	.	.	.	24fff#\	.
.	.	.	.	.	.	24ddd\	.
8AA/J)	.	8D/J)	.	.	.	24aa\	.
.	.	.	.	.	.	24ff#\	.
.	.	.	.	.	.	24dd\JJ	.
=181	=181	=181	=181	=181	=181	=181	=181
(8F#\L	.	(8A/L	.	8dd\L] 8ff#\]	.	24a/LL	.
.	.	.	.	.	.	24f#/	.
.	.	.	.	.	.	24d/	.
8D\J	.	8F#/J	.	24aa\L	.	24A/	.
.	.	.	.	24ff#\	.	24d/	.
.	.	.	.	24dd\JJ	.	24f#/JJ	.
8F#\L	.	8A/L	.	24a/LL	.	24a\LL	.
.	.	.	.	24f#/	.	24dd\	.
.	.	.	.	24d/	.	24ff#\	.
8D\J)	.	8F#/J)	.	24A/	.	24aa\	.
.	.	.	.	24A/	.	24aa\	.
.	.	.	.	24A/JJ	.	24aa\JJ	.
=182	=182	=182	=182	=182	=182	=182	=182
2r	.	4r	.	(8B-/L	.	(2gg\	.
.	.	.	.	8A/J	.	.	.
.	.	(8B-/L	.	8e/L	.	.	.
.	.	8A/J	.	8c#/J	.	.	.
=183	=183	=183	=183	=183	=183	=183	=183
(8BB-/L	.	8e\L	.	8cc#/L	.	4.gg\)	.
8AA/J	.	8c#\J	.	8e/J	.	.	.
8A\L)	.	8cc#\L	.	8ee\L	.	.	.
8A\J	.	8e\J)	.	8cc#\J)	.	(16ee\LL	.
.	.	.	.	.	.	16aa\JJ)	.
=184	=184	=184	=184	=184	=184	=184	=184
8D\	p	8.f#\	p	8.dd\	p	8.aa\	p
8r	.	.	.	.	.	.	.
.	.	16r	.	16r	.	16r	.
4r	.	8.fn\	.	8.dd\	.	8.gg#\	.
.	.	16r	.	16r	.	16r	.
=185	=185	=185	=185	=185	=185	=185	=185
(2B-\	.	8e\	.	8cc#\	.	8ggn\	.
.	.	8r	.	8r	.	8r	.
.	.	4r	.	4r	.	4r	.
=186	=186	=186	=186	=186	=186	=186	=186
8D\)	.	8.F#/	.	8.d/	.	8.a/	.
8r	.	.	.	.	.	.	.
.	.	16r	.	16r	.	16r	.
4r	.	8.Fn/	.	8.d/	.	8.g#/	.
.	.	16r	.	16r	.	16r	.
=187	=187	=187	=187	=187	=187	=187	=187
(2BB-/	.	[2E/	.	[2c#/	.	[2gn/	.
=188	=188	=188	=188	=188	=188	=188	=188
8AA/)	.	8E/]	.	8c#/]	.	8g/]	.
8r	.	8r	.	8r	.	8r	.
4r	.	4r	.	4r	.	4r	.
=189	=189	=189	=189	=189	=189	=189	=189
8.DD/	.	8.F#/	.	8.d/	.	8.f#/	.
16r	.	16r	.	16r	.	16r	.
4r	.	4r	.	4r	.	4r	.
=190	=190	=190	=190	=190	=190	=190	=190
8.DD/	.	8.F#/	.	8.d/	.	8.f#/	.
16r	pp	16r	pp	16r	pp	16r	pp
4r	.	4r	.	4r	.	4r	.
=191	=191	=191	=191	=191	=191	=191	=191
8.d\	.	2r	.	2r	.	8.dd\	.
16r	.	.	.	.	.	16r	.
4r	.	.	.	.	.	4r	.
=192	=192	=192	=192	=192	=192	=192	=192
2B;\	.	2fn;\	.	2g#;/	.	2dd;\	.
==	==	==	==	==	==	==	==
*-	*-	*-	*-	*-	*-	*-	*-
